X:39
T:Sheehan's
T:Wellington's
Z:Boston 
M:C|
E:7
R:reel
K:G
G2 BG DGBG|ABcA BG ~G2|~A3 B cABG|EAAG FADF|G2 BG DGBG|cBAB cdef|gedB c2 Bc|dBcA BG ~G2:|
g2 bg dgbg|gbag fade|f2 af dfaf|gbag fddf|g2 bg dgbg|gbag fdef|(3gfe dB c2 Bc|dBcA BG ~G2:|
<end>
<start>
